app/dist/common/images/medical-data-vision.svg

<svg height="18" width="18" xmlns="http://www.w3.org/2000/svg"><path d="m0 0h18v18h-18z" fill="#8e8e8e"/><path d="m9.63 11h-1.63v-4h1.87c.63 0 1 .27 1.29.63.28.37.41.86.41 1.36 0 .6-.17 1.11-.5 1.45-.35.36-.78.56-1.44.56zm.12-1c.33 0 .48-.12.57-.3.1-.18.07-.4.07-.6v-.24c0-.17.01-.31-.1-.5-.1-.2-.27-.35-.63-.35h-.66v2h.75z" fill="#fa0"/><path d="m14.46 11h-1.3l-1.47-4h1.28l.86 2.7.85-2.7h1.32zm-12.46-4h1.6l.9 2.26.9-2.26h1.6v4h-1v-2.6l-1.16 2.6h-.68l-1.16-2.6v2.6h-1z" fill="#fff"/></svg>

<!-- by TradingView --><svg xmlns="http://www.w3.org/2000/svg" width="18" height="18"><path fill="#8E8E8E" d="M0 0h18v18H0z"/><path d="M9.63 11H8V7h1.87c.63 0 1 .27 1.29.63.28.37.41.86.41 1.36 0 .6-.17 1.11-.5 1.45-.35.36-.78.56-1.44.56zm.12-1c.33 0 .48-.12.57-.3.1-.18.07-.4.07-.6v-.24c0-.17.01-.31-.1-.5-.1-.2-.27-.35-.63-.35H9v2h.75z" fill="#FA0"/><path d="M14.46 11h-1.3l-1.47-4h1.28l.86 2.7.85-2.7H16l-1.54 4zM2 7h1.6l.9 2.26L5.4 7H7v4H6V8.4L4.84 11h-.68L3 8.4V11H2V7z" fill="#fff"/></svg>
